!!!COM: Music21
!!!OTL: Ei Carballeira
!!!OMV: pezas_foliadas_ei-carballeira_ei-carballeira-partitura.musicxml
**kern
*I"Bagpipes
*I'Bag
*clefG^2
*k[b-e-a-]
*E-:
*M4/4
*met(c)
=1
!LO:TX:a:t=Ad libitum
*MM96
!LO:TX:a:t=[quarter]=96
2gg
2ccc
=
16bb-LL
16aa-
16gg
16bb-JJ
16aa-LL
16gg
16ff
16aa-JJ
2gg
=
16ffLL
16ee-
16dd
16ff
16ee-
16dd
16cc
16ee-
16dd
16cc
16bn
16ddJJ
4cc;
=||
*M3/4
!LO:TX:a:t=Prestissimo
*MM220
!LO:TX:a:t=[quarter]=220
2r
4gg
=||
4cc
8ccL
8bnJ
8ccL
8ddJ
=
4ee-
8ee-L
8ddJ
8ee-L
8ffJ
!!linebreak:original
=
4gg
8ggL
8ffJ
8ggL
8aa-J
=
4gg
8ggL
8ffJ
8ee-L
8ggJ
=
4ff
8ffL
8ee-J
8ddL
8ffJ
=
4ee-
8ee-L
8ddJ
8ccL
8ee-J
=
4dd
8ddL
8ccJ
8bnL
8ddJ
=
2cc
4gg
=||
4cc
8ccL
8bnJ
8ccL
8ddJ
=
4ee-
8ee-L
8ddJ
8ee-L
8ffJ
!!linebreak:original
=
4gg
8ggL
8ffJ
8ggL
8aa-J
=
4gg
8ggL
8ffJ
8ee-L
8ggJ
=
4ff
8ffL
8ee-J
8ddL
8ffJ
=
4ee-
8ee-L
8ddJ
8ccL
8ee-J
=
4dd
8ddL
8ccJ
8bnL
8ddJ
=||
2.cc
!!linebreak:original
=||
8ccL
8bnJ
8ccL
8ddJ
8ee-L
8ffJ
=
8ggL
8ee-J
8ccL
8aa-J
8ggL
8ffJ
=
8ggL
8ee-J
8ccL
8ffJ
8ee-L
8ddJ
=
2ee-
4cc
=
8ccL
8bnJ
8ccL
8ddJ
8ee-L
8ffJ
=
8ggL
8ee-J
8ccL
8aa-J
8ggL
8ffJ
=
8ggL
8ee-J
8ccL
8ffJ
8ee-L
8ddJ
=
2.cc
!!linebreak:original
=||
8ccL
8bnJ
8ccL
8ddJ
8ee-L
8ffJ
=
8ggL
8ee-J
8ccL
8aa-J
8ggL
8ffJ
=
8ggL
8ee-J
8ccL
8ffJ
8ee-L
8ddJ
=
2ee-
4cc
=
8ccL
8bnJ
8ccL
8ddJ
8ee-L
8ffJ
=
8ggL
8ee-J
8ccL
8aa-J
8ggL
8ffJ
=
8ggL
8ee-J
8ccL
8ffJ
8ee-L
8ddJ
=
2.cc
!!linebreak:original
=||
4cc
4bn
4cc
=
2dd
4ee-
=
2ff
4ee-
=
2.dd
=
4dd
4ee-
4ff
=
2gg
4ee-
=
2dd
4dd
=
2.cc
=
4cc
4bn
4cc
=
2dd
4ee-
=
2ff
4ee-
=
2.dd
=
4dd
4ee-
4ff
!!linebreak:original
=
2gg
12aa-L
12bb-
12aa-J
=
2gg
4ff
!!linebreak:original
=
4ee-
4dd
4ff
=
2ee-
4dd
=
4dd
4cc
4ee-
=
2dd
4dd
=
2cc
4gg
=||
4cc
8ccL
8ee-J
4gg
=
4ccc
2r
==
*-
